Numix/16/status/indicator-keyboard-Cs-3.svg

<?xml version="1.0" encoding="UTF-8" standalone="no"?>
<svg
   xmlns:dc="http://purl.org/dc/elements/1.1/"
   xmlns:cc="http://creativecommons.org/ns#"
   xmlns:rdf="http://www.w3.org/1999/02/22-rdf-syntax-ns#"
   xmlns:svg="http://www.w3.org/2000/svg"
   xmlns="http://www.w3.org/2000/svg"
   xmlns:sodipodi="http://sodipodi.sourceforge.net/DTD/sodipodi-0.dtd"
   xmlns:inkscape="http://www.inkscape.org/namespaces/inkscape"
   viewBox="0 0 16 16"
   id="svg2"
   version="1.1"
   inkscape:version="0.91 r13725"
   sodipodi:docname="indicator-keyboard-Cs-3.svg">
  <metadata
     id="metadata14">
    <rdf:RDF>
      <cc:Work
         rdf:about="">
        <dc:format>image/svg+xml</dc:format>
        <dc:type
           rdf:resource="http://purl.org/dc/dcmitype/StillImage" />
      </cc:Work>
    </rdf:RDF>
  </metadata>
  <defs
     id="defs12" />
  <sodipodi:namedview
     pagecolor="#ffffff"
     bordercolor="#666666"
     borderopacity="1"
     objecttolerance="10"
     gridtolerance="10"
     guidetolerance="10"
     inkscape:pageopacity="0"
     inkscape:pageshadow="2"
     inkscape:window-width="640"
     inkscape:window-height="480"
     id="namedview10"
     showgrid="false"
     inkscape:zoom="14.75"
     inkscape:cx="8"
     inkscape:cy="8"
     inkscape:window-x="65"
     inkscape:window-y="24"
     inkscape:window-maximized="0"
     inkscape:current-layer="svg2" />
  <path
     style="fill:#ececec;fill-opacity:1"
     d="M 1.5996094 0 C 0.71320937 2.9605947e-16 0 0.71320937 0 1.5996094 L 0 14.400391 C 2.9605947e-16 15.286791 0.71320937 16 1.5996094 16 L 14.400391 16 C 15.286791 16 16 15.286791 16 14.400391 L 16 1.5996094 C 16 0.71320937 15.286791 0 14.400391 0 L 1.5996094 0 z M 5.0820312 4.7246094 C 5.3160313 4.7246094 5.5287031 4.7395312 5.7207031 4.7695312 C 5.9127031 4.7995313 6.0806094 4.8387187 6.2246094 4.8867188 C 6.3686094 4.9287188 6.49175 4.9734844 6.59375 5.0214844 C 6.69575 5.0634844 6.774125 5.1026719 6.828125 5.1386719 L 6.6308594 5.6699219 C 6.4808594 5.5799219 6.2886875 5.4922031 6.0546875 5.4082031 C 5.8266875 5.3182031 5.5412187 5.2734375 5.1992188 5.2734375 C 4.8092188 5.2734375 4.4678281 5.3387031 4.1738281 5.4707031 C 3.8858281 5.6027031 3.6413594 5.7892969 3.4433594 6.0292969 C 3.2453594 6.2692969 3.0961406 6.5547656 2.9941406 6.8847656 C 2.8981406 7.2147656 2.8496094 7.5804219 2.8496094 7.9824219 C 2.8496094 8.3964219 2.8981406 8.7714219 2.9941406 9.1074219 C 3.0961406 9.4374219 3.2435469 9.719125 3.4355469 9.953125 C 3.6275469 10.187125 3.8607187 10.366188 4.1367188 10.492188 C 4.4187188 10.618187 4.7396094 10.681641 5.0996094 10.681641 C 5.4956094 10.681641 5.8258438 10.646219 6.0898438 10.574219 C 6.3598437 10.496219 6.565125 10.417844 6.703125 10.339844 L 6.8730469 10.861328 C 6.8310469 10.891328 6.75825 10.928703 6.65625 10.970703 C 6.55425 11.006703 6.4255313 11.045891 6.2695312 11.087891 C 6.1135312 11.129891 5.9344687 11.161547 5.7304688 11.185547 C 5.5264687 11.215547 5.298875 11.230469 5.046875 11.230469 C 4.644875 11.230469 4.269875 11.159625 3.921875 11.015625 C 3.579875 10.871625 3.2794844 10.660766 3.0214844 10.384766 C 2.7694844 10.108765 2.5679688 9.7691875 2.4179688 9.3671875 C 2.2739688 8.9591875 2.203125 8.4946562 2.203125 7.9726562 C 2.203125 7.4506563 2.2795469 6.9898906 2.4355469 6.5878906 C 2.5975469 6.1798906 2.8102187 5.8365469 3.0742188 5.5605469 C 3.3382188 5.2845469 3.6441875 5.0774531 3.9921875 4.9394531 C 4.3401875 4.7954531 4.7040312 4.7246094 5.0820312 4.7246094 z M 9.1621094 6.3359375 C 9.4801094 6.3359375 9.7413125 6.3620156 9.9453125 6.4160156 C 10.155312 6.4700156 10.302719 6.5185469 10.386719 6.5605469 L 10.251953 7.0820312 C 10.179953 7.0460313 10.056812 6.9975 9.8828125 6.9375 C 9.7148125 6.8775 9.4647656 6.8476562 9.1347656 6.8476562 C 9.0027656 6.8476562 8.8778125 6.8625781 8.7578125 6.8925781 C 8.6438125 6.9165781 8.5411719 6.9595312 8.4511719 7.0195312 C 8.3611719 7.0735313 8.2903281 7.144375 8.2363281 7.234375 C 8.1823281 7.318375 8.1542969 7.4247812 8.1542969 7.5507812 C 8.1542969 7.6767813 8.1785625 7.7830469 8.2265625 7.8730469 C 8.2745625 7.9630469 8.3435938 8.0451875 8.4335938 8.1171875 C 8.5295937 8.1831875 8.6433906 8.2466406 8.7753906 8.3066406 C 8.9133906 8.3666406 9.0701406 8.4319063 9.2441406 8.5039062 C 9.4241406 8.5759063 9.5938594 8.6505156 9.7558594 8.7285156 C 9.9238594 8.8005156 10.071266 8.8900469 10.197266 8.9980469 C 10.323266 9.1000469 10.425906 9.2269531 10.503906 9.3769531 C 10.581906 9.5209531 10.621094 9.7037812 10.621094 9.9257812 C 10.621094 10.345781 10.460578 10.664859 10.142578 10.880859 C 9.8305781 11.096859 9.4034219 11.203125 8.8574219 11.203125 C 8.4494219 11.203125 8.1359219 11.167703 7.9199219 11.095703 C 7.7039219 11.029703 7.5602812 10.979359 7.4882812 10.943359 L 7.640625 10.412109 C 7.658625 10.424109 7.6978125 10.444609 7.7578125 10.474609 C 7.8178125 10.498609 7.8999531 10.528453 8.0019531 10.564453 C 8.1039531 10.594453 8.2233281 10.622484 8.3613281 10.646484 C 8.5053281 10.670484 8.6714219 10.681641 8.8574219 10.681641 C 9.1934219 10.681641 9.4675938 10.627531 9.6835938 10.519531 C 9.9055938 10.405531 10.017578 10.217125 10.017578 9.953125 C 10.017578 9.827125 9.9970781 9.7189062 9.9550781 9.6289062 C 9.9190781 9.5389063 9.855625 9.4587187 9.765625 9.3867188 C 9.675625 9.3147188 9.55625 9.2456875 9.40625 9.1796875 C 9.26225 9.1136875 9.0812344 9.0353125 8.8652344 8.9453125 C 8.6912344 8.8733125 8.5270938 8.8005156 8.3710938 8.7285156 C 8.2150938 8.6505156 8.0770312 8.56475 7.9570312 8.46875 C 7.8370312 8.36675 7.7399688 8.2454219 7.6679688 8.1074219 C 7.5959688 7.9694219 7.5605469 7.8015156 7.5605469 7.6035156 C 7.5605469 7.2255156 7.702375 6.9195469 7.984375 6.6855469 C 8.272375 6.4515469 8.6641094 6.3359375 9.1621094 6.3359375 z M 12.429688 8.7539062 C 12.632487 8.7539062 12.804919 8.7793781 12.949219 8.8300781 C 13.097419 8.8807781 13.220859 8.953275 13.318359 9.046875 C 13.415859 9.136575 13.488356 9.2463 13.535156 9.375 C 13.581956 9.4997999 13.605469 9.6350031 13.605469 9.7832031 C 13.605469 10.021103 13.540809 10.217041 13.412109 10.369141 C 13.287309 10.517341 13.124681 10.625106 12.925781 10.691406 C 13.034981 10.718706 13.140787 10.759859 13.242188 10.818359 C 13.347487 10.872959 13.441538 10.945456 13.523438 11.035156 C 13.605338 11.120956 13.671956 11.226762 13.722656 11.351562 C 13.773356 11.476363 13.796875 11.623316 13.796875 11.791016 C 13.796875 11.962616 13.767478 12.119372 13.705078 12.263672 C 13.646578 12.407972 13.556447 12.535331 13.435547 12.644531 C 13.318547 12.749831 13.167675 12.834084 12.984375 12.896484 C 12.801075 12.954984 12.587497 12.984375 12.341797 12.984375 C 12.213097 12.984375 12.093575 12.974578 11.984375 12.955078 C 11.879075 12.939478 11.785025 12.919884 11.703125 12.896484 C 11.621225 12.873084 11.550688 12.849572 11.492188 12.826172 C 11.437588 12.802772 11.396441 12.783178 11.369141 12.767578 L 11.46875 12.427734 C 11.49215 12.443334 11.531337 12.462928 11.585938 12.486328 C 11.640537 12.509728 11.705197 12.533241 11.779297 12.556641 C 11.857297 12.576141 11.943509 12.593775 12.037109 12.609375 C 12.134609 12.624975 12.240416 12.632813 12.353516 12.632812 C 12.724016 12.632812 12.988538 12.556397 13.148438 12.404297 C 13.308337 12.248297 13.388672 12.040597 13.388672 11.779297 C 13.388672 11.607697 13.355363 11.464662 13.289062 11.351562 C 13.226662 11.238462 13.138491 11.148331 13.025391 11.082031 C 12.916191 11.011831 12.786872 10.962847 12.638672 10.935547 C 12.494372 10.904347 12.341534 10.888672 12.177734 10.888672 L 12.119141 10.888672 L 12.119141 10.574219 L 12.253906 10.574219 C 12.359206 10.574219 12.465019 10.564422 12.574219 10.544922 C 12.687319 10.521522 12.789206 10.480375 12.878906 10.421875 C 12.972506 10.363375 13.048922 10.285 13.107422 10.1875 C 13.169822 10.09 13.201172 9.9646001 13.201172 9.8125 C 13.201172 9.6838 13.179619 9.5760281 13.136719 9.4863281 C 13.093819 9.3927281 13.035038 9.3182719 12.960938 9.2636719 C 12.890738 9.2090719 12.806484 9.1698844 12.708984 9.1464844 C 12.615384 9.1191844 12.517409 9.1054687 12.412109 9.1054688 C 12.201509 9.1054688 12.036922 9.1348594 11.919922 9.1933594 C 11.802922 9.2518594 11.706913 9.3067219 11.632812 9.3574219 L 11.46875 9.0585938 C 11.50775 9.0312937 11.556734 8.9999437 11.615234 8.9648438 C 11.677634 8.9297437 11.750131 8.8964344 11.832031 8.8652344 C 11.913931 8.8340344 12.004062 8.8085625 12.101562 8.7890625 C 12.202962 8.7656625 12.312688 8.7539062 12.429688 8.7539062 z "
     id="path4" />
</svg>

<svg xmlns="http://www.w3.org/2000/svg" viewBox="0 0 16 16">
 <path d="m 1.6 0 c -0.886 0 -1.6 0.713 -1.6 1.6 l 0 12.801 c 0 0.886 0.713 1.6 1.6 1.6 l 12.801 0 c 0.886 0 1.6 -0.713 1.6 -1.6 l 0 -12.801 c 0 -0.886 -0.713 -1.6 -1.6 -1.6 l -12.801 0 z m 3.482 4.725 c 0.234 0 0.447 0.015 0.639 0.045 c 0.192 0.03 0.36 0.069 0.504 0.117 c 0.144 0.042 0.267 0.087 0.369 0.135 c 0.102 0.042 0.18 0.081 0.234 0.117 l -0.197 0.531 c -0.15 -0.09 -0.342 -0.178 -0.576 -0.262 c -0.228 -0.09 -0.513 -0.135 -0.855 -0.135 c -0.39 0 -0.731 0.065 -1.025 0.197 c -0.288 0.132 -0.532 0.319 -0.73 0.559 c -0.198 0.24 -0.347 0.525 -0.449 0.855 c -0.096 0.33 -0.145 0.696 -0.145 1.098 c 0 0.414 0.049 0.789 0.145 1.125 c 0.102 0.33 0.249 0.612 0.441 0.846 c 0.192 0.234 0.425 0.413 0.701 0.539 c 0.282 0.126 0.603 0.189 0.963 0.189 c 0.396 0 0.726 -0.035 0.99 -0.107 c 0.27 -0.078 0.475 -0.156 0.613 -0.234 l 0.17 0.521 c -0.042 0.03 -0.115 0.067 -0.217 0.109 c -0.102 0.036 -0.231 0.075 -0.387 0.117 c -0.156 0.042 -0.335 0.074 -0.539 0.098 c -0.204 0.03 -0.432 0.045 -0.684 0.045 c -0.402 0 -0.777 -0.071 -1.125 -0.215 c -0.342 -0.144 -0.642 -0.355 -0.9 -0.631 c -0.252 -0.276 -0.454 -0.616 -0.604 -1.018 c -0.144 -0.408 -0.215 -0.873 -0.215 -1.395 c 0 -0.522 0.076 -0.983 0.232 -1.385 c 0.162 -0.408 0.375 -0.751 0.639 -1.027 c 0.264 -0.276 0.57 -0.483 0.918 -0.621 c 0.348 -0.144 0.712 -0.215 1.09 -0.215 z m 4.08 1.611 c 0.318 0 0.579 0.026 0.783 0.08 c 0.21 0.054 0.357 0.103 0.441 0.145 l -0.135 0.521 c -0.072 -0.036 -0.195 -0.085 -0.369 -0.145 c -0.168 -0.06 -0.418 -0.09 -0.748 -0.09 c -0.132 0 -0.257 0.015 -0.377 0.045 c -0.114 0.024 -0.217 0.067 -0.307 0.127 c -0.09 0.054 -0.161 0.125 -0.215 0.215 c -0.054 0.084 -0.082 0.19 -0.082 0.316 c 0 0.126 0.024 0.232 0.072 0.322 c 0.048 0.09 0.117 0.172 0.207 0.244 c 0.096 0.066 0.21 0.129 0.342 0.189 c 0.138 0.06 0.295 0.125 0.469 0.197 c 0.18 0.072 0.35 0.147 0.512 0.225 c 0.168 0.072 0.315 0.162 0.441 0.27 c 0.126 0.102 0.229 0.229 0.307 0.379 c 0.078 0.144 0.117 0.327 0.117 0.549 c 0 0.42 -0.161 0.739 -0.479 0.955 c -0.312 0.216 -0.739 0.322 -1.285 0.322 c -0.408 0 -0.722 -0.035 -0.938 -0.107 c -0.216 -0.066 -0.36 -0.116 -0.432 -0.152 l 0.152 -0.531 c 0.018 0.012 0.057 0.033 0.117 0.063 c 0.06 0.024 0.142 0.054 0.244 0.09 c 0.102 0.03 0.221 0.058 0.359 0.082 c 0.144 0.024 0.31 0.035 0.496 0.035 c 0.336 0 0.61 -0.054 0.826 -0.162 c 0.222 -0.114 0.334 -0.302 0.334 -0.566 c 0 -0.126 -0.02 -0.234 -0.062 -0.324 c -0.036 -0.09 -0.099 -0.17 -0.189 -0.242 c -0.09 -0.072 -0.209 -0.141 -0.359 -0.207 c -0.144 -0.066 -0.325 -0.144 -0.541 -0.234 c -0.174 -0.072 -0.338 -0.145 -0.494 -0.217 c -0.156 -0.078 -0.294 -0.164 -0.414 -0.26 c -0.12 -0.102 -0.217 -0.223 -0.289 -0.361 c -0.072 -0.138 -0.107 -0.306 -0.107 -0.504 c 0 -0.378 0.142 -0.684 0.424 -0.918 c 0.288 -0.234 0.68 -0.35 1.178 -0.35 z m 3.268 2.418 c 0.203 0 0.375 0.025 0.52 0.076 c 0.148 0.051 0.272 0.123 0.369 0.217 c 0.098 0.09 0.17 0.199 0.217 0.328 c 0.047 0.125 0.07 0.26 0.07 0.408 c 0 0.238 -0.065 0.434 -0.193 0.586 c -0.125 0.148 -0.287 0.256 -0.486 0.322 c 0.109 0.027 0.215 0.068 0.316 0.127 c 0.105 0.055 0.199 0.127 0.281 0.217 c 0.082 0.086 0.149 0.192 0.199 0.316 c 0.051 0.125 0.074 0.272 0.074 0.439 c 0 0.172 -0.029 0.328 -0.092 0.473 c -0.059 0.144 -0.149 0.272 -0.27 0.381 c -0.117 0.105 -0.268 0.19 -0.451 0.252 c -0.183 0.059 -0.397 0.088 -0.643 0.088 c -0.129 0 -0.248 -0.01 -0.357 -0.029 c -0.105 -0.016 -0.199 -0.035 -0.281 -0.059 c -0.082 -0.023 -0.152 -0.047 -0.211 -0.07 c -0.055 -0.023 -0.096 -0.043 -0.123 -0.059 l 0.1 -0.34 c 0.023 0.016 0.063 0.035 0.117 0.059 c 0.055 0.023 0.119 0.047 0.193 0.07 c 0.078 0.019 0.164 0.037 0.258 0.053 c 0.098 0.016 0.203 0.023 0.316 0.023 c 0.37 0 0.635 -0.076 0.795 -0.229 c 0.16 -0.156 0.24 -0.364 0.24 -0.625 c 0 -0.172 -0.033 -0.315 -0.1 -0.428 c -0.062 -0.113 -0.151 -0.203 -0.264 -0.27 c -0.109 -0.07 -0.239 -0.119 -0.387 -0.146 c -0.144 -0.031 -0.297 -0.047 -0.461 -0.047 l -0.059 0 l 0 -0.314 l 0.135 0 c 0.105 0 0.211 -0.01 0.32 -0.029 c 0.113 -0.023 0.215 -0.065 0.305 -0.123 c 0.094 -0.059 0.17 -0.137 0.229 -0.234 c 0.062 -0.098 0.094 -0.223 0.094 -0.375 c 0 -0.129 -0.022 -0.236 -0.064 -0.326 c -0.043 -0.094 -0.102 -0.168 -0.176 -0.223 c -0.07 -0.055 -0.154 -0.094 -0.252 -0.117 c -0.094 -0.027 -0.192 -0.041 -0.297 -0.041 c -0.211 0 -0.375 0.029 -0.492 0.088 c -0.117 0.059 -0.213 0.113 -0.287 0.164 l -0.164 -0.299 c 0.039 -0.027 0.088 -0.059 0.146 -0.094 c 0.062 -0.035 0.135 -0.068 0.217 -0.1 c 0.082 -0.031 0.172 -0.057 0.27 -0.076 c 0.101 -0.023 0.211 -0.035 0.328 -0.035 z" style="fill:#ececec;fill-opacity:1"/>
</svg>
